src/com/lilithsthrone/res/UIElements/healthIcon.svg

<?xml version="1.0" encoding="UTF-8" standalone="no"?>
<!-- Created with Inkscape (http://www.inkscape.org/) -->

<svg
   xmlns:dc="http://purl.org/dc/elements/1.1/"
   xmlns:cc="http://creativecommons.org/ns#"
   xmlns:rdf="http://www.w3.org/1999/02/22-rdf-syntax-ns#"
   xmlns:svg="http://www.w3.org/2000/svg"
   xmlns="http://www.w3.org/2000/svg"
   xmlns:sodipodi="http://sodipodi.sourceforge.net/DTD/sodipodi-0.dtd"
   xmlns:inkscape="http://www.inkscape.org/namespaces/inkscape"
   width="100%"
   height="100%"
   viewBox="0 0 64.000001 64.000001"
   id="svg4311"
   version="1.1"
   inkscape:version="0.91 r13725"
   sodipodi:docname="healthIcon.svg">
  <defs
     id="defs4313">
    <inkscape:path-effect
       effect="powerstroke"
       id="path-effect4154"
       is_visible="true"
       offset_points="0.54375131,-0.89337372"
       sort_points="true"
       interpolator_type="Linear"
       interpolator_beta="0.2"
       start_linecap_type="zerowidth"
       linejoin_type="round"
       miter_limit="4"
       end_linecap_type="zerowidth"
       cusp_linecap_type="round" />
  </defs>
  <sodipodi:namedview
     id="base"
     pagecolor="#ffffff"
     bordercolor="#666666"
     borderopacity="1.0"
     inkscape:pageopacity="0.0"
     inkscape:pageshadow="2"
     inkscape:zoom="7.9999996"
     inkscape:cx="31.694832"
     inkscape:cy="17.35061"
     inkscape:document-units="px"
     inkscape:current-layer="layer3"
     showgrid="false"
     units="px"
     inkscape:window-width="2560"
     inkscape:window-height="1388"
     inkscape:window-x="-8"
     inkscape:window-y="-8"
     inkscape:window-maximized="1" />
  <metadata
     id="metadata4316">
    <rdf:RDF>
      <cc:Work
         rdf:about="">
        <dc:format>image/svg+xml</dc:format>
        <dc:type
           rdf:resource="http://purl.org/dc/dcmitype/StillImage" />
        <dc:title />
      </cc:Work>
    </rdf:RDF>
  </metadata>
  <g
     inkscape:groupmode="layer"
     id="layer3"
     inkscape:label="Stage3"
     style="display:inline">
    <path
       style="fill:#ff2a2a;fill-opacity:1;stroke:#000000;stroke-width:1;stroke-linecap:round;stroke-linejoin:round;stroke-miterlimit:4;stroke-dasharray:none;stroke-dashoffset:0;stroke-opacity:1"
       d="M 32.0625,2.5149046 C 15.844238,2.5144535 2.6966242,15.701653 2.6970713,31.96875 2.6966237,48.235848 15.844236,61.423047 32.0625,61.422596 48.280764,61.423047 61.428377,48.235848 61.42793,31.96875 61.428376,15.701652 48.280764,2.514453 32.0625,2.5149046 Z"
       id="path4136"
       inkscape:connector-curvature="0"
       sodipodi:nodetypes="ccccc" />
    <path
       style="fill:#ffd5d5;fill-rule:evenodd;stroke:#000000;stroke-width:0.52020001;stroke-linecap:butt;stroke-linejoin:miter;stroke-miterlimit:4;stroke-dasharray:none;stroke-opacity:1"
       d="M 32.354898,9.2350754 46.938709,9.226028 38.616807,22.920293 46.938709,23.130974 17.548706,55.049148 27.977415,32.927642 21.235623,32.822301 Z"
       id="path4147"
       inkscape:connector-curvature="0"
       sodipodi:nodetypes="cccccccc" />
  </g>
</svg>

<svg xmlns="http://www.w3.org/2000/svg" viewBox="0 0 64 64">
    <g stroke="#000">
        <path fill="#ff2a2a" stroke-linecap="round" stroke-linejoin="round" d="M32.063 2.515c-16.219 0-29.366 13.187-29.366 29.454 0 16.267 13.147 29.454 29.366 29.454 16.218 0 29.365-13.187 29.365-29.454 0-16.267-13.147-29.455-29.365-29.454z"/>
        <path fill="#ffd5d5" fill-rule="evenodd" stroke-width=".52" d="M32.355 9.235l14.584-.009-8.322 13.694 8.322.211-29.39 31.918 10.428-22.121-6.741-.106z"/>
    </g>
</svg>
